X: 24717
T: Macroom Lasses, The
R: reel
M: 4/4
K: Gmajor
DGGBA2ge|dBGB AGEG|DGGBA2ge|dBcA BGGE
DGGBA2ge|dBGB AGEG|DGGBA2ge|dBcA BGG2:|
|:gdeg edBd|cABG AGEG|gdeg dgbg|agaba2ga|
bgeg edBd|cABG AGEG|DGGBA2ge|dBcA BGG2:|

